Simply black circles/scalable/mimes/audio-x-ms-wma.svg

<?xml version="1.0" encoding="UTF-8" standalone="no"?>
<!-- Created with Inkscape (http://www.inkscape.org/) -->

<svg
   xmlns:dc="http://purl.org/dc/elements/1.1/"
   xmlns:cc="http://creativecommons.org/ns#"
   xmlns:rdf="http://www.w3.org/1999/02/22-rdf-syntax-ns#"
   xmlns:svg="http://www.w3.org/2000/svg"
   xmlns="http://www.w3.org/2000/svg"
   xmlns:xlink="http://www.w3.org/1999/xlink"
   xmlns:sodipodi="http://sodipodi.sourceforge.net/DTD/sodipodi-0.dtd"
   xmlns:inkscape="http://www.inkscape.org/namespaces/inkscape"
   version="1.1"
   width="48"
   height="48"
   id="svg21744"
   sodipodi:docname="audio-x-ms-wma.svg"
   inkscape:version="0.92.3 (2405546, 2018-03-11)">
  <sodipodi:namedview
     pagecolor="#ffffff"
     bordercolor="#666666"
     borderopacity="1"
     objecttolerance="10"
     gridtolerance="10"
     guidetolerance="10"
     inkscape:pageopacity="0"
     inkscape:pageshadow="2"
     inkscape:window-width="1366"
     inkscape:window-height="690"
     id="namedview44"
     showgrid="false"
     inkscape:zoom="7.2920387"
     inkscape:cx="1.3575758"
     inkscape:cy="24"
     inkscape:window-x="0"
     inkscape:window-y="28"
     inkscape:window-maximized="1"
     inkscape:current-layer="svg21744"
     inkscape:snap-global="false" />
  <defs
     id="defs21746">
    <linearGradient
       x1="525.4375"
       y1="836.1875"
       x2="516.65625"
       y2="828.5"
       id="linearGradient14113"
       xlink:href="#linearGradient14494-2-7"
       gradientUnits="userSpaceOnUse"
       gradientTransform="translate(-125.5,-1702.64)" />
    <linearGradient
       id="linearGradient14494-2-7">
      <stop
         id="stop14496-9-3"
         style="stop-color:#dc85e9;stop-opacity:1"
         offset="0" />
      <stop
         id="stop14498-9-7"
         style="stop-color:#f2cbf8;stop-opacity:1"
         offset="1" />
    </linearGradient>
    <linearGradient
       x1="520.58502"
       y1="735.05206"
       x2="516.15179"
       y2="720.86298"
       id="linearGradient14115"
       xlink:href="#linearGradient14494-5"
       gradientUnits="userSpaceOnUse" />
    <linearGradient
       id="linearGradient14494-5">
      <stop
         id="stop14496-5"
         style="stop-color:#dc85e9;stop-opacity:1"
         offset="0" />
      <stop
         id="stop14498-1"
         style="stop-color:#f2cbf8;stop-opacity:1"
         offset="1" />
    </linearGradient>
    <linearGradient
       x1="525.4375"
       y1="836.1875"
       x2="516.65625"
       y2="828.5"
       id="linearGradient54948"
       xlink:href="#linearGradient14494-2-7"
       gradientUnits="userSpaceOnUse"
       gradientTransform="translate(-462.50049,-802.00385)" />
    <linearGradient
       x1="520.58502"
       y1="735.05206"
       x2="516.15179"
       y2="720.86298"
       id="linearGradient14109"
       xlink:href="#linearGradient14494-5"
       gradientUnits="userSpaceOnUse"
       gradientTransform="matrix(0.512535,0,0,0.615385,-202.35949,-422.92385)" />
    <linearGradient
       x1="525.4375"
       y1="836.1875"
       x2="516.65625"
       y2="828.5"
       id="linearGradient54952"
       xlink:href="#linearGradient14494-2-7"
       gradientUnits="userSpaceOnUse"
       gradientTransform="translate(-462.50049,-797.50385)" />
    <linearGradient
       x1="209.0625"
       y1="-765.46082"
       x2="209.0625"
       y2="-781.62268"
       id="linearGradient44039"
       xlink:href="#linearGradient15606-1"
       gradientUnits="userSpaceOnUse"
       gradientTransform="matrix(1.5,0,0,1.5,-364.99949,1176.9562)" />
    <linearGradient
       id="linearGradient15606-1">
      <stop
         id="stop15608-0"
         style="stop-color:#ffffff;stop-opacity:0.58823502"
         offset="0" />
      <stop
         id="stop15610-5"
         style="stop-color:#ffffff;stop-opacity:0.86274499"
         offset="1" />
    </linearGradient>
    <linearGradient
       x1="294.3429"
       y1="256.58133"
       x2="294.41818"
       y2="243.13852"
       id="linearGradient44042"
       xlink:href="#linearGradient10286-3"
       gradientUnits="userSpaceOnUse"
       gradientTransform="matrix(2.99213,0,0,3.00466,-830.71149,-727.44385)" />
    <linearGradient
       id="linearGradient10286-3">
      <stop
         id="stop10288-8"
         style="stop-color:#b3b3b3;stop-opacity:1"
         offset="0" />
      <stop
         id="stop10290-7"
         style="stop-color:#e6e6e6;stop-opacity:1"
         offset="1" />
    </linearGradient>
    <linearGradient
       x1="110.96875"
       y1="976.29968"
       x2="110.96875"
       y2="992.375"
       id="linearGradient43236"
       xlink:href="#linearGradient4145-42"
       gradientUnits="userSpaceOnUse" />
    <linearGradient
       id="linearGradient4145-42">
      <stop
         id="stop4953"
         style="stop-color:#e694bb;stop-opacity:1"
         offset="0" />
      <stop
         id="stop4955"
         style="stop-color:#d3819a;stop-opacity:1"
         offset="0.26238" />
      <stop
         id="stop4957"
         style="stop-color:#b25a64;stop-opacity:1"
         offset="0.704952" />
      <stop
         id="stop4959"
         style="stop-color:#98313d;stop-opacity:1"
         offset="1" />
    </linearGradient>
    <linearGradient
       x1="110.96875"
       y1="976.29968"
       x2="110.99982"
       y2="991.87488"
       id="linearGradient14097-7"
       xlink:href="#linearGradient4145-42"
       gradientUnits="userSpaceOnUse"
       gradientTransform="matrix(1,0,0,1.00011,0,-0.10551)" />
    <linearGradient
       x1="110.96875"
       y1="976.29968"
       x2="110.96875"
       y2="992.375"
       id="linearGradient21742"
       xlink:href="#linearGradient4145-42"
       gradientUnits="userSpaceOnUse"
       gradientTransform="matrix(1.00399,0,0,1.00959,-1.1658,-9.36636)" />
    <clipPath
       clipPathUnits="userSpaceOnUse"
       id="clipPath867">
      <g
         inkscape:label="Clip"
         id="use869">
        <path
           d="m 47.000614,3.0210706 v 0.75 40.5000404 0.72723 h 0.75 32.499399 0.75 v -0.72723 -25.50003 -0.3282 l -0.2344,-0.2343 -14.9059,-15.0000104 -0.1875,-0.1875 h -0.3282 -17.593399 z"
           id="path875"
           style="color:#000000;font-style:normal;font-variant:normal;font-weight:normal;font-stretch:normal;font-size:medium;line-height:normal;font-family:'Andale Mono';text-indent:0pt;text-align:start;text-decoration:none;text-decoration-line:none;letter-spacing:normal;word-spacing:normal;text-transform:none;direction:ltr;text-anchor:start;display:inline;overflow:visible;visibility:visible;fill:#000000;fill-opacity:1;fill-rule:nonzero;stroke:none;stroke-width:1;marker:none"
           inkscape:connector-curvature="0" />
      </g>
    </clipPath>
  </defs>
  <metadata
     id="metadata21749">
    <rdf:RDF>
      <cc:Work
         rdf:about="">
        <dc:format>image/svg+xml</dc:format>
        <dc:type
           rdf:resource="http://purl.org/dc/dcmitype/StillImage" />
        <dc:title></dc:title>
      </cc:Work>
    </rdf:RDF>
  </metadata>
  <path
     style="color:#000000;font-style:normal;font-variant:normal;font-weight:normal;font-stretch:normal;font-size:medium;line-height:normal;font-family:'Andale Mono';text-indent:0pt;text-align:start;text-decoration:none;text-decoration-line:none;letter-spacing:normal;word-spacing:normal;text-transform:none;direction:ltr;text-anchor:start;display:inline;overflow:visible;visibility:visible;fill:#1a1a1a;fill-opacity:1;stroke:none;stroke-width:5.99873972;marker:none"
     d="M 29.705078 -0.083984375 C 27.658234 -0.075805254 25.583576 0.00449542 25.1875 0.013671875 L 7 0.013671875 C 6.813106 -0.004321175 6.624454 -0.004321175 6.4375 0.013671875 C 5.062346 0.27607036 3.975341 1.6123101 4 3.0117188 L 4 45 C 4.00015 46.570313 5.429312 47.99985 7 48 L 41 48 C 42.570687 47.99985 43.99985 46.570313 44 45 L 44 18.818359 C 44.018 18.026395 44.215294 8.8914456 43.664062 8.3222656 L 34.054688 0.24804688 C 33.770027 -0.027426575 31.751922 -0.092163496 29.705078 -0.083984375 z M 31.195312 3.0097656 L 31.328125 10.513672 C 31.340155 11.195372 31.966379 11.80479 32.644531 11.792969 L 40.416016 11.65625 C 40.548988 11.674363 40.684161 11.672765 40.816406 11.650391 L 40.898438 14.679688 L 41 18.771484 L 41 44.271484 L 41 44.998047 L 40.25 44.998047 L 7.75 44.998047 L 7 44.998047 L 7 44.271484 L 7 3.7714844 L 7 3.0214844 L 7.75 3.0214844 L 25.34375 3.0214844 L 25.671875 3.0214844 L 31.195312 3.0097656 z M 28.472656 6.2929688 C 24.345756 6.9511588 19.600176 7.6292187 15.484375 8.3242188 C 14.394575 8.8504687 14.640017 10.206153 14.591797 11.189453 L 14.591797 24.351562 C 11.790997 23.710362 8.7172031 25.801591 8.5957031 28.775391 C 8.3974131 30.626791 10.055575 32.23795 11.859375 32.28125 C 15.089075 32.35884 17.543125 30.238741 17.578125 27.556641 C 17.542855 23.052341 17.588025 18.545616 17.578125 14.041016 C 18.078126 14.004366 25.897125 12.575769 26.578125 12.480469 L 26.578125 22.601562 C 23.994725 21.840502 21.413544 23.431596 20.777344 26.097656 C 20.306604 27.642056 21.016708 29.466909 22.548828 30.099609 C 25.539728 31.459809 29.745125 28.704203 29.578125 25.470703 C 29.531805 19.464403 29.616095 13.456219 29.578125 7.4492188 C 29.499575 6.8847388 29.114216 6.2521688 28.472656 6.2929688 z M 22.658203 34.998047 C 21.972108 35.004146 21.301437 35.616979 20.945312 35.783203 C 20.303093 34.805313 18.655819 34.760101 17.949219 35.681641 C 17.996089 35.325291 17.979756 35.032849 17.541016 35.162109 C 17.294446 35.237119 16.730586 34.994943 16.728516 35.314453 C 16.728516 37.110053 16.728517 38.905572 16.728516 40.701172 L 18.058594 40.701172 C 18.086624 39.474572 17.988982 38.240084 18.138672 37.021484 C 18.285592 36.002584 20.024062 35.993825 20.164062 37.015625 C 20.274262 38.238525 20.19477 39.472772 20.21875 40.701172 L 21.548828 40.701172 C 21.575058 39.503972 21.485788 38.299775 21.617188 37.109375 C 21.723247 36.117135 23.310588 35.925333 23.617188 36.876953 C 23.789008 37.890553 23.676574 38.932284 23.708984 39.958984 C 23.785434 40.198134 23.52053 40.777142 23.912109 40.701172 L 25.039062 40.701172 C 25.015863 39.402472 25.091381 38.099387 24.988281 36.804688 C 24.924761 35.764688 23.954825 35.023956 22.953125 35.035156 C 22.855334 35.008183 22.756217 34.997176 22.658203 34.998047 z M 28.425781 35.035156 C 27.410653 35.136104 26.424625 35.797684 26.09375 36.783203 C 25.48241 38.265203 26.184453 40.271284 27.814453 40.708984 C 28.756643 41.005874 29.891172 40.793839 30.513672 39.980469 C 30.591452 40.210759 30.32459 40.787272 30.71875 40.701172 L 31.734375 40.701172 L 31.734375 35.162109 L 30.513672 35.162109 C 30.512372 35.614319 30.609317 36.205993 30.148438 35.507812 C 29.653325 35.11575 29.034858 34.974587 28.425781 35.035156 z M 8.28125 35.162109 L 10.261719 40.701172 C 10.520909 40.636542 10.972065 40.831636 11.109375 40.603516 L 12.150391 37.111328 C 12.500391 38.308028 12.851172 39.504472 13.201172 40.701172 C 13.468492 40.639392 13.911256 40.826999 14.066406 40.605469 C 14.721516 38.790769 15.37615 36.976809 16.03125 35.162109 L 14.611328 35.162109 C 14.274658 36.288809 13.938232 37.414316 13.601562 38.541016 C 13.298232 37.414316 12.994736 36.288809 12.691406 35.162109 L 11.630859 35.162109 L 10.701172 38.541016 L 9.7109375 35.162109 L 8.28125 35.162109 z M 28.84375 36.251953 C 30.02605 36.182703 30.792681 37.552138 30.363281 38.585938 C 29.971011 40.010937 27.615816 39.915467 27.291016 38.492188 C 26.971136 37.458687 27.68184 36.199853 28.84375 36.251953 z "
     id="path14075" />
</svg>

<svg xmlns="http://www.w3.org/2000/svg" width="48" height="48"><defs><linearGradient id="a"><stop offset="0" stop-color="#dc85e9"/><stop offset="1" stop-color="#f2cbf8"/></linearGradient><linearGradient id="b"><stop offset="0" stop-color="#dc85e9"/><stop offset="1" stop-color="#f2cbf8"/></linearGradient><linearGradient id="c"><stop offset="0" stop-color="#fff" stop-opacity=".588"/><stop offset="1" stop-color="#fff" stop-opacity=".863"/></linearGradient><linearGradient id="d"><stop offset="0" stop-color="#b3b3b3"/><stop offset="1" stop-color="#e6e6e6"/></linearGradient><linearGradient id="e"><stop offset="0" stop-color="#e694bb"/><stop offset=".262" stop-color="#d3819a"/><stop offset=".705" stop-color="#b25a64"/><stop offset="1" stop-color="#98313d"/></linearGradient></defs><path style="line-height:normal;text-indent:0;text-align:start;text-decoration-line:none;text-transform:none;marker:none" d="M29.705-.084c-2.047.008-4.121.088-4.517.098H7a2.938 2.938 0 0 0-.563 0C5.063.276 3.975 1.612 4 3.012V45c0 1.57 1.43 3 3 3h34c1.57 0 3-1.43 3-3V18.818c.018-.792.215-9.927-.336-10.496L34.054.248c-.284-.275-2.302-.34-4.349-.332zm1.49 3.094l.133 7.504c.012.681.638 1.29 1.317 1.279l7.771-.137c.133.018.268.017.4-.006l.082 3.03L41 18.77v26.227H7V3.021h18.672l5.523-.011zm-2.722 3.283c-4.127.658-8.873 1.336-12.989 2.031-1.09.526-.844 1.882-.892 2.865v13.163c-2.801-.642-5.875 1.45-5.996 4.423-.199 1.852 1.46 3.463 3.263 3.506 3.23.078 5.684-2.042 5.72-4.724-.036-4.505.009-9.011 0-13.516.5-.037 8.318-1.465 9-1.56V22.6c-2.584-.76-5.165.83-5.802 3.497-.47 1.544.24 3.369 1.772 4.002 2.99 1.36 7.196-1.396 7.03-4.63-.047-6.006.037-12.014 0-18.02-.08-.565-.465-1.198-1.106-1.157zm-5.815 28.705c-.686.006-1.357.619-1.713.785-.642-.978-2.29-1.023-2.996-.101.047-.357.03-.65-.408-.52-.247.075-.81-.167-.812.152v5.387h1.33c.028-1.226-.07-2.46.08-3.68.147-1.018 1.885-1.027 2.025-.005.11 1.223.03 2.457.055 3.685h1.33c.026-1.197-.063-2.401.068-3.592.106-.992 1.694-1.184 2-.232.172 1.014.06 2.055.092 3.082.076.24-.188.818.203.742h1.127c-.023-1.299.052-2.602-.05-3.896-.064-1.04-1.034-1.781-2.036-1.77a1.07 1.07 0 0 0-.295-.037zm5.768.037c-1.015.101-2.001.763-2.332 1.748-.612 1.482.09 3.488 1.72 3.926.943.297 2.077.085 2.7-.729.077.23-.19.807.205.721h1.015v-5.539h-1.22c-.002.452.095 1.044-.366.346-.495-.392-1.113-.533-1.722-.473zm-20.145.127l1.98 5.54c.26-.065.711.13.848-.098l1.041-3.493 1.051 3.59c.267-.062.71.126.865-.096.656-1.814 1.31-3.628 1.965-5.443h-1.42l-1.01 3.379-.91-3.379h-1.06l-.93 3.379-.99-3.379H8.28zm20.563 1.09c1.182-.07 1.949 1.3 1.52 2.334-.393 1.425-2.748 1.33-3.073-.094-.32-1.033.39-2.292 1.553-2.24z" color="#000" font-weight="400" font-family="Andale Mono" overflow="visible" fill="#1a1a1a"/></svg>
